!!!OTL: Graf und Nonne (Die Nonne) Ich stand auf hohem Berge
!!!ARE: Europa, Mitteleuropa, Deutschland (BRD), Nordrhein - Westfalen, Bonn
!!!YOR: 8, S. 292
!!    1820 aufgezeichnet (ca.)
!!!SCT: Q0155Q.
!!!YEM: Copyright 1995, estate of Helmut Schaffrath.
**kern
*ICvox
*Ivox
*M2/4
*k[f#]
*G:
{8g
=1
8b
8b
8b
16b
16a
=2
4g
8d}
{8d
=3
8g
8g
16b
16a
16g
16a
=4
4b
8r}
{8dd
=5
8gg
16ff#
16ee
8dd
16b
16g
=6
4ee
8dd
8r
=7
4cc
8b}
{8dd
=8
8ee
16dd
16cc
8b
8a
=9
4g
8r}
==
!!!AGN: Ballade, Standesunterschied, vergebliche Werbung, Liebe, Klage
!! Anhaengsel an der dritten Zeile.
!!!ONB: ESAC (Essen Associative Code) Database: BALLADE
!!!AMT: simple duple
!!!AIN: vox
!!!EED: Helmut Schaffrath
!!!EEV: 1.0
*-
